X:6706
T:The Donegal Doughertys
O:england
R:Reel
C:Ed Reavy
M:2/2
L:1/8
N:In memory of the many talented Dougherty
N:families. First, of course there
N:was Neil and his son John, who were
N:from the Glenties. Neil, a very close friend
N:of Ed's and a gifted fiddler, was
N:a special talent. Ed praised Neil as
N:"a little known master of his trade."
N:The tune also comemorates Charlie
N:Dougherty and his wife Mary ("dear people"),
N:no relation to Neil. And finally
N:the tune recalls John, the tinker,
N:and his musical family from the same region of
N:the Glenties.
K:D
D2 FA dfaf|gece dcAG|FEFG A^GAB|cBcG ED^CE|
DEFD G2 FG|ABcA dcde|fgaf cded|1 cAGE EDCE:|
2cAGE EDDc||d2 fd fafd|cAGF EFGE|d2 fd fafd|
cdeg fddf|(3agf (3gfe fdec|dcAG FEFG|(3AAG AB cBcd|
1faeg fddc:|2(3efg ed cAGE||
